**kern	**silbe
*ICvox	*
*D-:	*
*M4/4	*
*clefG2	*
r;	.
=1	=1
1r	.
=2	=2
1r	.
=3	=3
2r	.
4f	On
8e	a
[8f	Mon-
=4	=4
8f]	_
[8d-	-day
4d-]	_
2r	.
=5	=5
2f	I
4g-	was
8f	ar-
[8a-	-res-
=6	=6
8a-]	_
[8e-	-ted
4e-]	_
2r	.
=7	=7
2r	.
4g-	On
8f	a
[8g-	Tues-
=8	=8
8g-]	_
[8e-	-day
4e-]	_
4r	.
4a-	They
=9	=9
4a-	locked
8r	.
[8a-	me
8a-]	_
8g-	in
8c	the
[8d-	jail
=10	=10
2d-]	_
2r	.
=11	=11
2r	.
4f	On
8e	a
[8f	Wednes-
=12	=12
8f]	_
[8d-	-day
4d-]	_
4r	.
4f	My
=13	=13
2f	trial
4f	was
8g-	at-
[8a-	-tes-
=14	=14
8a-]	_
8e-	-ted
4r	.
2r	.
=15	=15
2r	.
4g-	On
8f	a
[8g-	Thurs-
=16	=16
4g-]	_
8e-	-day
4e-	they
[8e-	said
4e-]	_
=17	=17
4g-	guil-
4e-	-ty
4e-	and
8e-	the
[8a-	jud-
=18	=18
4a-]	_
4a-	-ges's
8f	ga-
4c	-vel
[8d-	fell
=19	=19
4d-]	_
4r	.
8f	I
4.f	got
=20	=20
2d-	stripes
2r	.
=21	=21
4f	Stripes
8f	a-
[8f	-round
4f]	_
4g-	my
=22	=22
2a-	shoul-
[2e-	-ders
=23	=23
4e-]	_
4r	.
8g-	I
4.g-	got
=24	=24
2e-	chains
2r	.
=25	=25
4a-	Chains
8a-	a-
[8a-	-round
4a-]	_
4a-	my
=26	=26
[1a-	feet
=27	=27
4a-]	_
4r	.
8f	I
4.f	got
=28	=28
2d-	stripes
2r	.
=29	=29
4f	Stripes
8f	a-
[8f	-round
4f]	_
4g-	my
=30	=30
2a-	shoul-
[2e-	-ders
=31	=31
4e-]	_
4r	.
8e-	And
4.f	them
=32	=32
2g-	chains
2e-	them
=33	=33
2g-	chains
2e-	they're
=34	=34
4a-	'bout
8a-	to
[8a-	drag
4a-]	_
4c	me
=35	=35
4d-	down
4r	.
4.f	On
8e	a
=36	=36
8f	Mon-
[8d-	-day
4d-]	_
2r	.
=37	=37
4f	Got
4f	my
4f	stri-
8f	-ped
[8a-	brit-
=38	=38
8a-]	_
[8e-	-ches
4e-]	_
2r	.
=39	=39
2r	.
4g-	On
8f	a
[8g-	Tues-
=40	=40
8g-]	_
[8e-	-day
4e-]	_
2r	.
=41	=41
4a-	Got
8a-	my
[8a-	ball
4a-]	_
4c	and
=42	=42
2d-	chain
2r	.
=43	=43
2r	.
4f	On
8e	a
[8f	Wednes-
=44	=44
8f]	_
[8d-	-day
4d-]	_
4r	.
4f	I'm
=45	=45
4f	work-
4f	-ing
8f	dig-
4g-	-gin'
[8a-	dit-
=46	=46
8a-]	_
[8e-	-ches
4e-]	_
2r	.
=47	=47
2r	.
4e-	On
8f	a
[8g-	Thurs-
=48	=48
4g-]	_
8e-	-day
4e-	Lord
[8e-	I
4e-]	_
=49	=49
4g-	begged
4e-	them
4e-	not
8e-	to
[8a-	knock
=50	=50
4a-]	_
8a-	me
[8a-	down
4a-]	_
4c	a-
=51	=51
4d-	-gain
4r	.
8f	I
4.f	got
=52	=52
2d-	stripes
2r	.
=53	=53
4f	Stripes
8f	a-
[8f	-round
4f]	_
4g-	my
=54	=54
2a-	shoul-
[2e-	-ders
=55	=55
4e-]	_
4r	.
8g-	I
4.g-	got
=56	=56
2e-	chains
2r	.
=57	=57
4a-	Chains
8a-	a-
[8a-	-round
4a-]	_
4c	my
=58	=58
[1d-	feet
=59	=59
4d-]	_
4r	.
8f	I
4.f	got
=60	=60
2d-	stripes
2r	.
=61	=61
4f	Stripes
8f	a-
[8f	-round
4f]	_
4g-	my
=62	=62
2a-	shoul-
[2e-	-ders
=63	=63
4e-]	_
4r	.
8e-	And
4.f	them
=64	=64
2g-	chains
2e-	them
=65	=65
2g-	chains
2e-	they're
=66	=66
4a-	'bout
8a-	to
[8a-	drag
4a-]	_
4c	me
=67	=67
2d-	down
2r	.
=68	=68
*E-:	*
1r	.
=69	=69
2r	.
4g	On
8f#	a
[8g	Mon-
=70	=70
8g]	_
[8e-	-day
4e-]	_
4r	.
4g	My
=71	=71
8g	ma-
4g	-ma
4.g	come
8a-	to
[8b-	see
=72	=72
8b-]	_
[8f	me
4f]	_
2r	.
=73	=73
2r	.
4a-	On
8g	a
[8a-	Tues-
=74	=74
2a-]	_
4f	-day
4b-	they
=75	=75
4b-	caught
8r	.
[8b-	me
8b-]	_
8a-	with
8d	a
[8e-	file
=76	=76
2e-]	_
2r	.
=77	=77
2r	.
4g	On
8f#	a
[8g	Wednes-
=78	=78
8g]	_
[8e-	-day
4e-]	_
4r	.
4g	I'm
=79	=79
4g	down
4g	in
4a-	sol-
8b-	-i-
[8b-	-ta-
=80	=80
8b-]	_
8f	-ry
4r	.
2r	.
=81	=81
2r	.
4f	On
8g	a
[8a-	Thurs-
=82	=82
4a-]	_
8f	-day
4f	Lord
[8f	I
4f]	_
=83	=83
4a-	start
4f	on
4f	bread
4f	and
=84	=84
4b-	wa-
8b-	-ter
4.b-	for
4d	a
=85	=85
4e-	while
4r	.
8g	I
4.g	got
=86	=86
2e-	stripes
2r	.
=87	=87
4g	Stripes
8g	a-
[8g	-round
4g]	_
4a-	my
=88	=88
2b-	shoul-
[2f	-ders
=89	=89
4f]	_
4r	.
8a-	I
4.a-	got
=90	=90
2f	chains
2r	.
=91	=91
4b-	Chains
8b-	a-
[8b-	-round
4b-]	_
4b-	my
=92	=92
1b-	feet
=93	=93
4g	_
4r	.
8g	I
4.g	got
=94	=94
2e-	stripes
2r	.
=95	=95
4g	Stripes
8g	a-
[8g	-round
4g]	_
4a-	my
=96	=96
2b-	shoul-
[2f	-ders
=97	=97
4f]	_
4r	.
8f	And
4.g	them
=98	=98
2a-	chains
2f	them
=99	=99
2a-	chains
2f	they're
=100	=100
4b-	'bout
8b-	to
[8b-	drag
4b-]	_
4d	me
=101	=101
1e-	down
r;	.
r;	.
*-	*-
!!!ENC: Nathaniel Condit-Schultz
!!!MBID: 660fc685-7bd0-4663-a3c2-419e1cdd3fd6
